X: 108
T: REEL: Maud Millar
C: C: Trad.; S: Various
C: Set Leaders: Mars, Anton
Z: [Unedited]; slainte at The Session
N: https://thesession.org/members/26966/sets/94255
R: Reel
M: 4/4
L: 1/8
Q: 1/2=100
K: Gmaj
gf|edBA GEDE|G2BG dGBd|e2dB A2GA|Beed efgf|
edBA GEDE|G2BG dGBd|e2dB A2GA|Beed e2ge||
dega bgg2|agef g3e|dega bgg2|aged eage|
dega bgg2|agef g3a|bgaf gfed|Beed e4||

